icon.svg

<svg width="4096" height="4096" viewBox="0 0 1083.776 1083.776" xmlns="http://www.w3.org/2000/svg"><g style="display:inline;opacity:1"><path style="fill:#6e7080;fill-opacity:1;stroke-width:4.99999;stroke-linecap:round;stroke-linejoin:round" d="M0 0h8.467v8.467H0Z" transform="scale(128)"/><path style="fill:#b0bac0;fill-opacity:1;stroke:none;stroke-width:.264583px;stroke-linecap:butt;stroke-linejoin:miter;stroke-opacity:1" d="m0 0 8.467 8.467V0Z" transform="scale(128)"/><path style="fill:#989aa4;fill-opacity:1;stroke:none;stroke-width:.264583px;stroke-linecap:butt;stroke-linejoin:miter;stroke-opacity:1" d="M0 0h.132l8.335 8.334v.133h-.133L0 .132V0" transform="scale(128)"/><path style="fill:#989aa4;fill-opacity:1;stroke:none;stroke-width:.264583px;stroke-linecap:butt;stroke-linejoin:miter;stroke-opacity:1" d="m1.984 1.058-.926.926v4.498l.926.926h4.498l.926-.926V1.984l-.926-.926H1.984" transform="scale(128)"/><path style="fill:#b0bac0;fill-opacity:1;stroke:none;stroke-width:.264583px;stroke-linecap:butt;stroke-linejoin:miter;stroke-opacity:1" d="M3.572 2.117 2.117 3.572v1.323L3.572 6.35h1.323L6.35 4.895V3.572L4.895 2.117H3.572" transform="scale(128)"/><path style="display:inline;fill:#989aa4;fill-opacity:1;stroke:none;stroke-width:.15875px;stroke-linecap:butt;stroke-linejoin:miter;stroke-opacity:1" d="m4.233 3.043-1.19 1.19 1.19 1.191 1.191-1.19-1.19-1.191" transform="scale(128)"/></g><g style="display:inline;opacity:1"><path style="fill:#000;fill-opacity:1;stroke:#404049;stroke-width:1.5875;stroke-linecap:butt;stroke-linejoin:round;stroke-miterlimit:4;stroke-dasharray:none;stroke-opacity:1;paint-order:normal" d="m4.63.794.662.661L6.35 2.514v.793l1.058 1.059v1.323L6.35 6.747l-.926.926H3.043l-.926-.926-1.059-1.058V4.366l1.059-1.059v-.793l1.058-1.059.661-.661h.397z" transform="scale(128)"/><path style="fill:#c9a58f;fill-opacity:1;stroke:none;stroke-width:1.05833;stroke-miterlimit:4;stroke-dasharray:none;stroke-opacity:1" d="M4.233.794h.397l1.72 1.72v4.233l-.926.926h-1.19z" transform="scale(128)"/><path style="fill:#8f665b;fill-opacity:1;stroke:none;stroke-width:1.05833;stroke-miterlimit:4;stroke-dasharray:none;stroke-opacity:1" d="m6.35 3.307 1.058 1.059v1.323L6.35 6.747v-3.44" transform="scale(128)"/><path style="display:inline;fill:#8f665b;fill-opacity:1;stroke:none;stroke-width:1.05833;stroke-miterlimit:4;stroke-dasharray:none;stroke-opacity:1" d="m4.233 4.63 1.059 1.06v.793L4.233 7.541V4.63" transform="scale(128)"/><path style="fill:#f4f4f4;fill-opacity:1;stroke:none;stroke-width:1.05833;stroke-miterlimit:4;stroke-dasharray:none;stroke-opacity:1" d="M5.292 1.455 6.35 2.514v1.058l-.926.926h-1.19v-.926l1.058-1.058V1.455" transform="scale(128)"/><path style="display:inline;fill:#8f665b;fill-opacity:1;stroke:none;stroke-width:1.05833;stroke-miterlimit:4;stroke-dasharray:none;stroke-opacity:1" d="M4.233.794h-.397l-1.72 1.72v4.233l.927.926h1.19z" transform="scale(128)"/><path style="display:inline;fill:#c9a58f;fill-opacity:1;stroke:none;stroke-width:1.05833;stroke-miterlimit:4;stroke-dasharray:none;stroke-opacity:1" d="M2.117 3.307 1.058 4.366v1.323l1.059 1.058v-3.44M4.233 4.63 3.175 5.69v.793l1.058 1.059V4.63" transform="scale(128)"/><path style="display:inline;fill:#c1c3d4;fill-opacity:1;stroke:none;stroke-width:1.05833;stroke-miterlimit:4;stroke-dasharray:none;stroke-opacity:1" d="M3.175 1.455 2.117 2.514v1.058l.926.926h1.19v-.926L3.175 2.514V1.455" transform="scale(128)"/></g></svg>

<?xml version="1.0" encoding="UTF-8" standalone="no"?>
<svg
   width="4096"
   height="4096"
   viewBox="0 0 1083.776 1083.776"
   version="1.1"
   id="svg34"
   sodipodi:docname="icon.svg"
   inkscape:version="1.1.2 (0a00cf5339, 2022-02-04, custom)"
   xmlns:inkscape="http://www.inkscape.org/namespaces/inkscape"
   xmlns:sodipodi="http://sodipodi.sourceforge.net/DTD/sodipodi-0.dtd"
   xmlns="http://www.w3.org/2000/svg"
   xmlns:svg="http://www.w3.org/2000/svg">
  <defs
     id="defs38" />
  <sodipodi:namedview
     id="namedview36"
     pagecolor="#505050"
     bordercolor="#ffffff"
     borderopacity="1"
     inkscape:pageshadow="0"
     inkscape:pageopacity="0"
     inkscape:pagecheckerboard="1"
     showgrid="true"
     inkscape:zoom="0.10424805"
     inkscape:cx="1342.9508"
     inkscape:cy="3971.2974"
     inkscape:window-width="1920"
     inkscape:window-height="1040"
     inkscape:window-x="0"
     inkscape:window-y="0"
     inkscape:window-maximized="1"
     inkscape:current-layer="svg34">
    <inkscape:grid
       type="xygrid"
       id="grid954"
       spacingx="1083.776"
       spacingy="1083.776" />
  </sodipodi:namedview>
  <g
     id="g972"
     transform="scale(128)">
    <g
       style="display:inline;opacity:1"
       id="g14">
      <path
         style="fill:#6e7080;fill-opacity:1;stroke-width:4.99999;stroke-linecap:round;stroke-linejoin:round"
         d="M 0,0 H 8.467 V 8.467 H 0 Z"
         id="path2" />
      <path
         style="fill:#b0bac0;fill-opacity:1;stroke:none;stroke-width:0.264583px;stroke-linecap:butt;stroke-linejoin:miter;stroke-opacity:1"
         d="M 0,0 8.467,8.467 V 0 Z"
         id="path4" />
      <path
         style="fill:#989aa4;fill-opacity:1;stroke:none;stroke-width:0.264583px;stroke-linecap:butt;stroke-linejoin:miter;stroke-opacity:1"
         d="M 0,0 H 0.132 L 8.467,8.334 V 8.467 H 8.334 L 0,0.132 V 0"
         id="path6" />
      <path
         style="fill:#989aa4;fill-opacity:1;stroke:none;stroke-width:0.264583px;stroke-linecap:butt;stroke-linejoin:miter;stroke-opacity:1"
         d="M 1.984,1.058 1.058,1.984 V 6.482 L 1.984,7.408 H 6.482 L 7.408,6.482 V 1.984 L 6.482,1.058 H 1.984"
         id="path8" />
      <path
         style="fill:#b0bac0;fill-opacity:1;stroke:none;stroke-width:0.264583px;stroke-linecap:butt;stroke-linejoin:miter;stroke-opacity:1"
         d="M 3.572,2.117 2.117,3.572 V 4.895 L 3.572,6.35 H 4.895 L 6.35,4.895 V 3.572 L 4.895,2.117 H 3.572"
         id="path10" />
      <path
         style="display:inline;fill:#989aa4;fill-opacity:1;stroke:none;stroke-width:0.15875px;stroke-linecap:butt;stroke-linejoin:miter;stroke-opacity:1"
         d="m 4.233,3.043 -1.19,1.19 1.19,1.191 1.191,-1.19 -1.19,-1.191"
         id="path12" />
    </g>
    <g
       style="display:inline;opacity:1"
       id="g32">
      <path
         style="fill:#000000;fill-opacity:1;stroke:#404049;stroke-width:1.5875;stroke-linecap:butt;stroke-linejoin:round;stroke-miterlimit:4;stroke-dasharray:none;stroke-opacity:1;paint-order:normal"
         d="M 4.63,0.794 5.292,1.455 6.35,2.514 V 3.307 L 7.408,4.366 V 5.689 L 6.35,6.747 5.424,7.673 H 3.043 L 2.117,6.747 1.058,5.689 V 4.366 L 2.117,3.307 V 2.514 L 3.175,1.455 3.836,0.794 h 0.397 z"
         id="path16" />
      <path
         style="fill:#c9a58f;fill-opacity:1;stroke:none;stroke-width:1.05833;stroke-miterlimit:4;stroke-dasharray:none;stroke-opacity:1"
         d="M 4.233,0.794 H 4.63 l 1.72,1.72 V 6.747 L 5.424,7.673 h -1.19 z"
         id="path18" />
      <path
         style="fill:#8f665b;fill-opacity:1;stroke:none;stroke-width:1.05833;stroke-miterlimit:4;stroke-dasharray:none;stroke-opacity:1"
         d="M 6.35,3.307 7.408,4.366 V 5.689 L 6.35,6.747 v -3.44"
         id="path20" />
      <path
         style="display:inline;fill:#8f665b;fill-opacity:1;stroke:none;stroke-width:1.05833;stroke-miterlimit:4;stroke-dasharray:none;stroke-opacity:1"
         d="M 4.233,4.63 5.292,5.69 V 6.483 L 4.233,7.541 V 4.63"
         id="path22" />
      <path
         style="fill:#f4f4f4;fill-opacity:1;stroke:none;stroke-width:1.05833;stroke-miterlimit:4;stroke-dasharray:none;stroke-opacity:1"
         d="M 5.292,1.455 6.35,2.514 V 3.572 L 5.424,4.498 H 4.234 V 3.572 L 5.292,2.514 V 1.455"
         id="path24" />
      <path
         style="display:inline;fill:#8f665b;fill-opacity:1;stroke:none;stroke-width:1.05833;stroke-miterlimit:4;stroke-dasharray:none;stroke-opacity:1"
         d="M 4.233,0.794 H 3.836 l -1.72,1.72 v 4.233 l 0.927,0.926 h 1.19 z"
         id="path26" />
      <path
         style="display:inline;fill:#c9a58f;fill-opacity:1;stroke:none;stroke-width:1.05833;stroke-miterlimit:4;stroke-dasharray:none;stroke-opacity:1"
         d="M 2.117,3.307 1.058,4.366 V 5.689 L 2.117,6.747 V 3.307 M 4.233,4.63 3.175,5.69 V 6.483 L 4.233,7.542 V 4.63"
         id="path28" />
      <path
         style="display:inline;fill:#c1c3d4;fill-opacity:1;stroke:none;stroke-width:1.05833;stroke-miterlimit:4;stroke-dasharray:none;stroke-opacity:1"
         d="M 3.175,1.455 2.117,2.514 v 1.058 l 0.926,0.926 h 1.19 V 3.572 L 3.175,2.514 V 1.455"
         id="path30" />
    </g>
  </g>
</svg>
